symbols/web/save/materialsymbolsrounded/save_wght500grad200fill1_24px.svg

<svg xmlns="http://www.w3.org/2000/svg" height="24" width="24"><path d="M4.95 21.875q-1.175 0-2-.825t-.825-2V4.95q0-1.175.825-2t2-.825H16.2q.575 0 1.1.212.525.213.9.613l2.85 2.85q.4.375.613.9.212.525.212 1.1v11.25q0 1.175-.825 2t-2 .825Zm7.05-3.65q1.375 0 2.338-.962.962-.963.962-2.338t-.962-2.338q-.963-.962-2.338-.962t-2.337.962q-.963.963-.963 2.338t.963 2.338q.962.962 2.337.962Zm-4.825-7.85h6.875q.6 0 1-.4t.4-1v-1.8q0-.6-.4-1t-1-.4H7.175q-.6 0-1 .4t-.4 1v1.8q0 .6.4 1t1 .4Z"/></svg>

<svg xmlns="http://www.w3.org/2000/svg" height="24" width="24"><path d="M4.95 21.875Q3.775 21.875 2.95 21.05Q2.125 20.225 2.125 19.05V4.95Q2.125 3.775 2.95 2.95Q3.775 2.125 4.95 2.125H16.2Q16.775 2.125 17.3 2.337Q17.825 2.55 18.2 2.95L21.05 5.8Q21.45 6.175 21.663 6.7Q21.875 7.225 21.875 7.8V19.05Q21.875 20.225 21.05 21.05Q20.225 21.875 19.05 21.875ZM12 18.225Q13.375 18.225 14.338 17.263Q15.3 16.3 15.3 14.925Q15.3 13.55 14.338 12.587Q13.375 11.625 12 11.625Q10.625 11.625 9.663 12.587Q8.7 13.55 8.7 14.925Q8.7 16.3 9.663 17.263Q10.625 18.225 12 18.225ZM7.175 10.375H14.05Q14.65 10.375 15.05 9.975Q15.45 9.575 15.45 8.975V7.175Q15.45 6.575 15.05 6.175Q14.65 5.775 14.05 5.775H7.175Q6.575 5.775 6.175 6.175Q5.775 6.575 5.775 7.175V8.975Q5.775 9.575 6.175 9.975Q6.575 10.375 7.175 10.375Z"/></svg>
